X: 15622
T: Gobby O, The
R: jig
M: 6/8
K: Adorian
|:B|c2A A^GA|E2A A2c|B2G GBc|dBG GAB|
c2A A^GA|E2A A2e|edc BAG|E2A A2:|
E|A2B c2d|e2f g2e|faf g2e|dBG GAB|
A2B c2d|e=fe a2g|edc BAB|c2A A2:|

